!! 00000] TT[WS
!!!OTL: Zhuyngtai xiashan
!!!ARE: Asia, China, Shanxi Hequ
!! Ethnic Group: Han
!! WII, 198
!!!SCT: J0699
!!!YEM: Copyright 1995, estate of Helmut Schaffrath.
**kern
*ICvox
*Ivox
*M2/4
*k[b-e-a-]
*E-:
{8ee-
8ff
8dd
8cc
=1
8b-
8g
8ee-
8cc
=2
8b-
8g
8f
16g
16g
=3
8.f
16g
8.f
16g}
=4
{8ee-
8ee-
8cc
8b-
=5
16c
16e-
16B-
16c
[4e-
=6
8e-]
8ee-
16b-
16cc
16b-
16g
=7
8f
16b-
16g
8f
8d}
=8
{8g
8b-
8g
8f
=9
8e-
8e-
8.e-
16gg
=10
8ff
8ee-
[4b-
=11
4b-]}
{8a-
8a-
=12
16g
16g
16f
16g
8ee-
8ee-
=13
8b-
8g
8f
8e-
=14
16g
16b-
16g
16f
8e-
16f
16g
=15
2c}
=16
{4ee-
4ee-
=17
4b-
8g
8ee-
=18
8b-
8g
8f
8g
=19
8f
8g
8f
8g}
=20
{4ee-
8cc
8b-
=21
4c
[4e-
=22
8e-]
8f
8g
8b-
=23
4f}
{4g
=24
8g
8f
4e-
=25
8g
8ee-
8cc
8ee-
=26
2b-}
=27
{8g
8g
8g
8b-
=28
4cc
8b-
8g
=29
4f
8g
8f
=30
2e-}
==
!!!AGN: Xiaodiao, Shidiao. XÅshi
!!!ONB: ESAC (Essen Associative Code) Database: CHINA
!!!AMT: simple duple
!!!AIN: vox
!!!EED: Helmut Schaffrath
!!!EEV: 1.0
*-
!!!ONB: Tied note syntax fixed by Craig Sapp, 2004/05/03/
